static/assets/img/icons/theme/files/cloud-download.svg

<svg height="24" viewBox="0 0 24 24" width="24" xmlns="http://www.w3.org/2000/svg"><g fill="none" fill-rule="evenodd"><path d="m0 0h24v24h-24z" opacity="0"/><g fill="#000"><path d="m5.74714567 13.0425758c-1.65304205-1.0685402-2.74714567-2.9277872-2.74714567-5.0425758 0-3.3137085 2.6862915-6 6-6 2.7957591 0 5.1449096 1.91215918 5.8109738 4.5h2.4390262c2.0710678 0 3.75 1.67893219 3.75 3.75 0 2.0710678-1.6789322 3.75-3.75 3.75h-9c-.96182105 0-1.83906822-.3621038-2.50285433-.9574242z" opacity=".3"/><path d="m11.1288761 15.7336977v1.9564735h-2.00767129c-.27614237 0-.5.2238576-.5.5v1.0232987c0 .2761424.22385763.5.5.5h2.00767129v1.9564735c0 .2761424.2238576.5.5.5.1183116 0 .2327903-.0419538.3230849-.1184032l3.5056612-2.9681228c.2107501-.1784349.2369467-.4939317.0585119-.7046818-.0178538-.0210871-.0374248-.0406581-.0585119-.0585119l-3.5056612-2.9681228c-.2107501-.1784349-.5262468-.1522382-.7046817.0585119-.0764494.0902947-.1184032.2047733-.1184032.3230849z" fill-rule="nonzero" transform="matrix(0 1 -1 0 30.621205 6.701811)"/></g></g></svg>

<svg width="24px" height="24px" viewBox="0 0 24 24" version="1.1" xmlns="http://www.w3.org/2000/svg" xmlns:xlink="http://www.w3.org/1999/xlink">
    <title>Icon For Cloud-download</title>
    <g stroke="none" stroke-width="1" fill="none" fill-rule="evenodd">
        <polygon points="0 0 24 0 24 24 0 24" opacity="0"></polygon>
        <path d="M5.74714567,13.0425758 C4.09410362,11.9740356 3,10.1147886 3,8 C3,4.6862915 5.6862915,2 9,2 C11.7957591,2 14.1449096,3.91215918 14.8109738,6.5 L17.25,6.5 C19.3210678,6.5 21,8.17893219 21,10.25 C21,12.3210678 19.3210678,14 17.25,14 L8.25,14 C7.28817895,14 6.41093178,13.6378962 5.74714567,13.0425758 Z" fill="#000000" opacity="0.3"></path>
        <path d="M11.1288761,15.7336977 L11.1288761,17.6901712 L9.12120481,17.6901712 C8.84506244,17.6901712 8.62120481,17.9140288 8.62120481,18.1901712 L8.62120481,19.2134699 C8.62120481,19.4896123 8.84506244,19.7134699 9.12120481,19.7134699 L11.1288761,19.7134699 L11.1288761,21.6699434 C11.1288761,21.9460858 11.3527337,22.1699434 11.6288761,22.1699434 C11.7471877,22.1699434 11.8616664,22.1279896 11.951961,22.0515402 L15.4576222,19.0834174 C15.6683723,18.9049825 15.6945689,18.5894857 15.5161341,18.3787356 C15.4982803,18.3576485 15.4787093,18.3380775 15.4576222,18.3202237 L11.951961,15.3521009 C11.7412109,15.173666 11.4257142,15.1998627 11.2472793,15.4106128 C11.1708299,15.5009075 11.1288761,15.6153861 11.1288761,15.7336977 Z" fill="#000000" fill-rule="nonzero" transform="translate(11.959697, 18.661508) rotate(-270.000000) translate(-11.959697, -18.661508) "></path>
    </g>
</svg>
